X:580
T:Tommy Peoples' Reel
M:4/4
L:1/8
K:D
G|: FAAF D2 FD|EA,CE AGFE|FGAF D2 FD|EA,CE D3 G :|
FDFA dAFA|GFGB edcB|cdec A2 cA|BE^GB A2 Bc|
dcBA (3Bcd e2|(3efe (3dcB AGFE|FGAF D2 FD|EA,CE D3 |>|
